X:1
T:Ye Hae Lien Wrang, Lassie
M:6/8
L:1/4
K:C
 C/2 C E/2 C| F3/2 F/2 F| C3/2 E E/2| D3/2 z G/2| C/2 C E C/2| F F/2 F A/2|\
 G F/2 E D/2| C3/2 z G/2| c A/2 G E/2| F G/2 A B/2| c A/2 G E/2|
M:9/8
 D3/2 D/2 A z B/2|
M:6/8
 c/2 A G E/2| F G/2 A c/2| G F/2 E D/2| C3/2 C/2G/2 z/2|
